style-guide/assets/wds-icons-hourglass.svg

<svg width="24" height="24" viewBox="0 0 24 24" xmlns="http://www.w3.org/2000/svg">
  <path class="st0" d="M21.6 2c.2 0 .4-.2.4-.4V.4c0-.2-.2-.4-.4-.4H2.4c-.2 0-.4.2-.4.4v1.2c0 .2.2.4.4.4H4c0 4.1 1.4 7.8 3.6 10C5.4 14.2 4 17.9 4 22H2.4c-.2 0-.4.2-.4.4v1.1c0 .3.2.5.4.5h19.1c.2 0 .4-.2.4-.4v-1.1c0-.2-.2-.4-.4-.4H20c0-4.1-1.4-7.8-3.6-10C18.6 9.8 20 6.1 20 2h1.6zM18 22H6c0-1.4.2-2.8.5-4h10.9c.4 1.2.6 2.6.6 4zm-3.7-10.8l-1.1.8 1.2.8c1 .7 1.8 1.8 2.4 3.2H7.3c.6-1.4 1.4-2.5 2.4-3.2l1.2-.8-1.2-.8C7.5 9.6 6 5.9 6 2h12c0 3.9-1.5 7.6-3.7 9.2z" fill-rule="evenodd"/>
</svg>

<svg width="24" height="24" viewBox="0 0 24 24" xmlns="http://www.w3.org/2000/svg" >
<path class="st0" d="M21.6,2C21.8,2,22,1.8,22,1.6V0.4C22,0.2,21.8,0,21.6,0H2.4C2.2,0,2,0.2,2,0.4v1.2C2,1.8,2.2,2,2.4,2H4
	c0,4.1,1.4,7.8,3.6,10C5.4,14.2,4,17.9,4,22H2.4C2.2,22,2,22.2,2,22.4v1.1C2,23.8,2.2,24,2.4,24h19.1c0.2,0,0.4-0.2,0.4-0.4v-1.1
	c0-0.2-0.2-0.4-0.4-0.4H20c0-4.1-1.4-7.8-3.6-10C18.6,9.8,20,6.1,20,2H21.6z M18,22H6c0-1.4,0.2-2.8,0.5-4h10.9
	C17.8,19.2,18,20.6,18,22z M14.3,11.2L13.2,12l1.2,0.8c1,0.7,1.8,1.8,2.4,3.2H7.3c0.6-1.4,1.4-2.5,2.4-3.2l1.2-0.8l-1.2-0.8
	C7.5,9.6,6,5.9,6,2h12C18,5.9,16.5,9.6,14.3,11.2z" fill-rule="evenodd"/>
</svg>
